X:1
T:[ID 5-38a]
T:[ID 5-38a]
T:Bezeichnung standardisiert: Courante Tantz In dieser Quelle auch als: Courant
T:Urheber unbekannt Datum in der hier transkribierten schriftlichen Quelle: 1773
C:Urheber unbekannt
C:Datum in der hier transkribierten schriftlichen Quelle: 1773
L:1/8
M:2/4
K:D
V:1 treble 
V:1
 f | edcB | A2 G2 | FdEc | d/c/d/e/ df | edcB | A2 G2 | FdEc | d2 D :: f/g/ | af f/g/a/f/ | fe e2 | %12
 fe/d/ ce | e/d/c/B/ Af/g/ | af f/g/a/g/ | ge e2 | fe/d/ c/d/e/c/ | d2 D :| %18

